svg/bank_off_outline.svg

<svg xmlns="http://www.w3.org/2000/svg" viewBox="0 0 24 24"><path d="M17 13.8V10h2v5.8zM12 3.26 17.21 6H9.2l2 2h10.3V6L12 1 6.89 3.69l1.48 1.48zM5 10v7h2v-7zm16.5 10.85v-.01L19.66 19h-.01l-2-2h.01l-.66-.66v.01l-4-4v-.01l-2-2v.01L8.66 8 2.39 1.73 1.11 3l2.45 2.45L2.5 6v2h3.61L11 12.89V17h2v-2.11L17.11 19H2.5v2h16.61l1.73 1.73 1.27-1.27z"/></svg>

<?xml version="1.0" encoding="UTF-8"?><!DOCTYPE svg PUBLIC "-//W3C//DTD SVG 1.1//EN" "http://www.w3.org/Graphics/SVG/1.1/DTD/svg11.dtd"><svg xmlns="http://www.w3.org/2000/svg" xmlns:xlink="http://www.w3.org/1999/xlink" version="1.1" id="mdi-bank-off-outline" width="24" height="24" viewBox="0 0 24 24"><path d="M17 13.8V10H19V15.8L17 13.8M12 3.26L17.21 6H9.2L11.2 8H21.5V6L12 1L6.89 3.69L8.37 5.17L12 3.26M5 10V17H7V10H5M21.5 20.85V20.84L19.66 19H19.65L17.65 17H17.66L17 16.34V16.35L13 12.35V12.34L11 10.34V10.35L8.66 8H8.66L2.39 1.73L1.11 3L3.56 5.45L2.5 6V8H6.11L11 12.89V17H13V14.89L17.11 19H2.5V21H19.11L20.84 22.73L22.11 21.46L21.5 20.85Z" /></svg>
